static/images/innou-logo.svg

<svg width="1624" height="367" viewBox="0 0 1624 367" fill="none" xmlns="http://www.w3.org/2000/svg">
<path fill-rule="evenodd" clip-rule="evenodd" d="M761.846 130.879V95.0816C761.846 89.0762 756.931 84.1602 750.922 84.1602H694.082C689.096 84.1602 684.103 87.7082 683.274 93.5469L683.278 93.5255C683.204 94.0322 683.164 98.5909 683.164 99.1202V130.879C683.164 136.887 688.079 141.811 694.082 141.811H722.499H750.922C756.931 141.811 761.846 136.887 761.846 130.879ZM756.211 164.203H747.318H733.359H722.499H721.675H688.79C673.46 164.203 655.447 151.724 655.447 135.276V90.6909C655.447 74.2429 673.46 61.7682 688.79 61.7682H695.755H706.323H714.292H728.602H756.211C771.543 61.7682 789.555 74.2469 789.555 90.6909V135.274C789.555 151.716 771.532 164.203 756.211 164.203V164.203ZM536.699 84.3976C536.139 84.5162 535.59 84.6776 535.07 84.8802C535.59 84.6776 536.139 84.5162 536.699 84.3976ZM538.192 84.1896C537.771 84.2162 537.355 84.2736 536.947 84.3482C537.355 84.2709 537.771 84.2162 538.192 84.1896ZM595.942 84.1629L595.8 84.1602H538.956V84.1629H595.8H595.942ZM606.714 131.256L606.718 127.524V95.0816C606.718 89.1856 601.98 84.3362 596.123 84.1655H595.8H538.966C532.96 84.1655 528.04 89.0762 528.04 95.0816V130.879C528.04 136.887 532.96 141.811 538.966 141.811H595.8C601.683 141.811 606.515 137.095 606.714 131.256V131.256ZM601.092 164.203H578.236H578.21H577.719H577.235H576.75H576.262H575.774H575.288H574.798H574.314H573.827H573.34H572.852H572.367H571.879H571.392H570.904H570.416H569.931H533.674C531.98 164.203 530.282 164.052 528.602 163.775V216.874C528.602 230.742 517.355 241.983 503.488 241.983H500.332V90.6909C500.332 74.2429 518.338 61.7682 533.674 61.7682H538.075H559.167H563.278H601.092C616.415 61.7682 634.438 74.2469 634.438 90.6909V135.274C634.438 151.716 616.412 164.203 601.092 164.203V164.203ZM452.212 130.879V95.0816C452.212 89.0762 447.296 84.1602 441.288 84.1602H384.446C379.459 84.1602 374.468 87.7082 373.638 93.5469L373.642 93.5255C373.568 94.0322 373.528 98.5909 373.528 99.1202V130.879C373.528 136.887 378.444 141.811 384.446 141.811H412.863H441.286C447.296 141.811 452.212 136.887 452.212 130.879V130.879ZM446.575 164.203H437.686H423.723H412.863H412.04H379.152C363.824 164.203 345.812 151.724 345.812 135.276V90.6909C345.812 74.2429 363.824 61.7682 379.152 61.7682H386.122H396.69H404.656H418.966H446.575C461.904 61.7682 479.924 74.2469 479.924 90.6909V135.274C479.924 151.716 461.898 164.203 446.575 164.203V164.203ZM837.635 0.992209V124.706C837.635 134.11 845.347 141.811 854.75 141.811H892V147.619V158.395V164.203H868.235H842.706C827.387 164.203 809.37 151.724 809.37 135.276V26.1096C809.37 12.2376 820.619 0.992209 834.487 0.992209H837.635ZM915.146 83.7216C915.146 71.0616 927.643 61.7682 940.263 61.7682H943.41V164.234H915.146V83.7216ZM1096.54 84.1629H1005.18C991.656 84.1629 991.716 101.888 1005.18 101.888C1017.25 101.888 1028.77 101.678 1040.77 101.678C1041.67 101.678 1042.57 101.703 1043.47 101.754H1066.28C1081.62 101.754 1099.63 114.223 1099.63 130.676V135.274C1099.63 151.724 1081.62 164.203 1066.28 164.203H1061.29H1040.78V164.2H1038.37H966.555V141.807H1061C1075.08 141.807 1074.7 124.074 1060.98 124.074C1049 124.074 1037.18 124.287 1025.4 124.287C1024.55 124.287 1023.69 124.263 1022.83 124.215H999.888C984.552 124.215 966.555 111.74 966.555 95.2936V90.6909C966.555 74.2402 984.552 61.7682 999.888 61.7682H1025.4H1096.54V84.1629ZM296.434 79.5735C296.434 66.9029 305.155 61.7682 317.766 61.7682L336.303 61.8202C329.24 62.6269 324.6 64.5162 324.7 81.7509V148.656C324.7 155.006 320.063 164.234 313.708 164.234H288.13H288.138H288.13C281.984 164.354 277.011 158.648 272.787 154.487L200.639 83.3976V148.656C200.639 155.006 195.99 164.234 189.642 164.234H164.064H164.074H164.064C157.92 164.354 152.939 158.648 148.726 154.487L76.939 83.7509V83.7495C76.9243 84.4495 76.919 85.1669 76.9244 85.9069V164.234H48.6723V83.7216C48.6723 71.0616 57.387 61.7682 69.9977 61.7682L88.519 61.8202C90.2443 61.8202 92.263 62.2829 95.7336 65.6842L172.37 140.578V79.5735C172.37 66.9029 181.108 61.7682 193.702 61.7682L212.23 61.8202L212.204 61.8229L212.496 61.8202C214.25 61.8082 216.267 62.2309 219.804 65.6842L296.434 140.576V79.5735ZM0.000366211 83.7216C0.000366211 71.0616 12.5097 61.7682 25.1297 61.7682H28.2763V164.234H0.000366211V83.7216ZM773.984 208.008C773.984 195.347 786.484 186.052 799.106 186.052H802.25V288.518H773.984V208.008ZM474.815 186.587C461.031 189.13 447.108 200.515 447.108 214.978V259.563C447.108 276.011 465.12 288.49 480.454 288.49H514.166H525.024H547.878C563.198 288.49 581.22 276.003 581.22 259.563V219.37V186.586C567.436 189.123 553.503 200.515 553.503 214.978C553.503 228.372 553.498 241.768 553.498 255.163C553.498 261.178 548.592 266.096 542.575 266.096H514.166H485.756C479.735 266.096 474.815 261.178 474.815 255.163V247.044V219.37V186.587ZM1362.74 208.008C1362.74 195.347 1375.24 186.052 1387.86 186.052H1391.01V288.518H1362.74V208.008ZM1624 366.27H1620.85C1606.98 366.27 1595.73 355.028 1595.73 341.163V288.059V288.056C1594.03 288.342 1592.33 288.49 1590.66 288.49H1546.1H1546.1H1523.24C1507.92 288.49 1489.89 276.003 1489.89 259.563V214.978C1489.89 200.515 1503.83 189.124 1517.61 186.586V219.37V242.13V255.163V255.446C1517.77 261.327 1522.62 266.096 1528.53 266.096H1585.37C1590.54 266.096 1594.91 262.45 1596.02 257.595V257.575C1596.2 256.798 1596.29 255.992 1596.29 255.163V242.13V229.578V214.978C1596.29 200.512 1610.21 189.124 1624 186.587V219.37V255.87H1624V259.563L1624 259.656L1624 366.27ZM1121.37 207.979C1121.37 195.316 1133.86 186.023 1146.48 186.023H1149.63H1191.57V186.052H1200.41V208.451H1191.57H1166.74C1157.34 208.451 1149.63 216.154 1149.63 225.558V288.49H1121.37V207.979ZM601.619 208.008C601.619 195.347 610.327 186.052 622.943 186.052L641.46 186.11C643.188 186.11 645.204 186.567 648.679 189.971L725.318 264.866V203.856C725.318 191.19 734.058 186.052 746.648 186.052L765.174 186.11C758.132 186.914 753.484 188.8 753.584 206.039V272.946C753.584 279.294 748.935 288.518 742.583 288.518H723.334H717.012C710.866 288.64 705.886 282.932 701.672 278.774L629.886 208.036C629.87 208.736 629.864 209.452 629.87 210.195V288.518H601.619V208.008ZM966.807 186.052C954.39 186.098 937.283 184.394 928.336 199.143L886.984 261.919L845.627 199.14C837.272 184.668 820.067 186.052 807.162 186.052L863.52 272.738C869.212 281.487 875.728 287.518 883.9 288.368C893.876 289.403 902.908 284.328 910.448 272.738C927.804 246.036 947.899 215.134 966.807 186.052V186.052ZM1481.61 271.907V282.68V288.49H1470.27H1444.74C1429.42 288.49 1411.4 276.011 1411.4 259.563V229.499V214.98V214.903V150.399C1411.4 136.526 1422.66 125.278 1436.52 125.278H1439.67V186.486C1441.38 186.204 1443.07 186.052 1444.74 186.052H1470.27H1473.79V208.451H1456.78H1439.67V225.343V225.452V235.31V248.99C1439.67 258.396 1447.38 266.096 1456.78 266.096H1481.61V271.907ZM1099.32 266.094H1004.88C991.375 266.094 991.376 248.363 1004.89 248.363C1016.87 248.363 1028.69 248.574 1040.47 248.574C1041.32 248.574 1042.18 248.551 1043.05 248.504H1065.99C1081.32 248.504 1099.32 236.03 1099.32 219.579V214.978C1099.32 198.527 1081.32 186.052 1065.99 186.052H1044.46H1040.48H1021.11H999.575C984.244 186.052 966.242 198.527 966.242 214.978V217.28V254.96V259.563C966.242 276.011 984.256 288.49 999.594 288.49C1032.84 288.49 1066.08 288.488 1099.32 288.488V266.094ZM999.594 226.042L1060.69 226.176C1074.16 226.176 1074.22 208.451 1060.69 208.451H1044.46H1021.11H1004.87C999.575 208.451 995.13 212.262 994.142 217.28H994.066V226.554C995.922 226.219 997.776 226.042 999.594 226.042V226.042ZM1339.24 208.451H1247.89C1234.37 208.451 1234.42 226.176 1247.89 226.176C1259.96 226.176 1271.48 225.963 1283.47 225.963C1284.37 225.963 1285.28 225.991 1286.18 226.042H1308.99C1324.33 226.042 1342.34 238.511 1342.34 254.96V259.563C1342.34 276.011 1324.33 288.49 1308.99 288.49H1304H1283.49V288.488H1281.08H1209.27V266.094H1303.7C1317.79 266.094 1317.41 248.363 1303.69 248.363C1291.71 248.363 1279.89 248.574 1268.11 248.574C1267.26 248.574 1266.4 248.551 1265.54 248.504H1242.6C1227.26 248.504 1209.27 236.03 1209.27 219.579V214.978C1209.27 198.527 1227.26 186.052 1242.6 186.052H1268.11H1339.24V208.451Z" fill="#127800"/>
</svg>

<svg width="1624" height="367" fill="none" xmlns="http://www.w3.org/2000/svg"><path fill-rule="evenodd" clip-rule="evenodd" d="M761.846 130.879V95.082c0-6.006-4.915-10.922-10.924-10.922h-56.84c-4.986 0-9.979 3.548-10.808 9.387l.004-.022c-.074.507-.114 5.066-.114 5.595v31.759c0 6.008 4.915 10.932 10.918 10.932h56.84c6.009 0 10.924-4.924 10.924-10.932zm-5.635 33.324H688.79c-15.33 0-33.343-12.479-33.343-28.927V90.691c0-16.448 18.013-28.923 33.343-28.923h67.421c15.332 0 33.344 12.479 33.344 28.923v44.583c0 16.442-18.023 28.929-33.344 28.929zM536.699 84.398zm1.493-.208zm57.75-.027l-.142-.003h-56.844v.003H595.942zm10.772 47.093l.004-3.732V95.082c0-5.896-4.738-10.746-10.595-10.916H538.966c-6.006 0-10.926 4.91-10.926 10.916v35.797c0 6.008 4.92 10.932 10.926 10.932H595.8c5.883 0 10.715-4.716 10.914-10.555zm-5.622 32.947H533.674c-1.694 0-3.392-.151-5.072-.428v53.099c0 13.868-11.247 25.109-25.114 25.109h-3.156V90.691c0-16.448 18.006-28.923 33.342-28.923h67.418c15.323 0 33.346 12.479 33.346 28.923v44.583c0 16.442-18.026 28.929-33.346 28.929zm-148.88-33.324V95.082c0-6.006-4.916-10.922-10.924-10.922h-56.842c-4.987 0-9.978 3.548-10.808 9.387l.004-.022c-.074.507-.114 5.066-.114 5.595v31.759c0 6.008 4.916 10.932 10.918 10.932h56.84c6.01 0 10.926-4.924 10.926-10.932zm-5.637 33.324h-67.423c-15.328 0-33.34-12.479-33.34-28.927V90.691c0-16.448 18.012-28.923 33.34-28.923h67.423c15.329 0 33.349 12.479 33.349 28.923v44.583c0 16.442-18.026 28.929-33.349 28.929zM837.635.993v123.713c0 9.404 7.712 17.105 17.115 17.105H892v22.392h-49.294c-15.319 0-33.336-12.479-33.336-28.927V26.11c0-13.872 11.249-25.118 25.117-25.118h3.148zm77.511 82.729c0-12.66 12.497-21.954 25.117-21.954h3.147v102.466h-28.264V83.722zm181.394.44h-91.36c-13.524 0-13.464 17.726 0 17.726 12.07 0 23.59-.21 35.59-.21.9 0 1.8.025 2.7.076h22.81c15.34 0 33.35 12.469 33.35 28.922v4.598c0 16.45-18.01 28.929-33.35 28.929h-25.5v-.003h-74.225v-22.393H1061c14.08 0 13.7-17.733-.02-17.733-11.98 0-23.8.213-35.58.213a46.2 46.2 0 01-2.57-.072h-22.942c-15.336 0-33.333-12.475-33.333-28.921V90.69c0-16.45 17.997-28.923 33.333-28.923h96.652v22.395zm-800.106-4.589c0-12.67 8.721-17.805 21.332-17.805l18.537.052c-7.063.807-11.703 2.696-11.603 19.93v66.906c0 6.35-4.637 15.578-10.992 15.578H288.13h.008-.008c-6.146.12-11.119-5.586-15.343-9.747l-72.148-71.09v65.259c0 6.35-4.649 15.578-10.997 15.578h-25.578.01-.01c-6.144.12-11.125-5.586-15.338-9.747L76.939 83.751v-.002c-.015.7-.02 1.418-.015 2.158v78.327H48.672V83.722c0-12.66 8.715-21.954 21.326-21.954l18.521.052c1.725 0 3.744.463 7.215 3.864l76.636 74.894V79.573c0-12.67 8.738-17.805 21.332-17.805l18.528.052-.026.003.292-.003c1.754-.012 3.771.41 7.308 3.864l76.63 74.892V79.574zM0 83.722c0-12.66 12.51-21.954 25.13-21.954h3.146v102.466H0V83.722zm773.984 124.286c0-12.661 12.5-21.956 25.122-21.956h3.144v102.466h-28.266v-80.51zm-299.169-21.421c-13.784 2.543-27.707 13.928-27.707 28.391v44.585c0 16.448 18.012 28.927 33.346 28.927h67.424c15.32 0 33.342-12.487 33.342-28.927v-72.977c-13.784 2.537-27.717 13.929-27.717 28.392 0 13.394-.005 26.79-.005 40.185 0 6.015-4.906 10.933-10.923 10.933h-56.819c-6.021 0-10.941-4.918-10.941-10.933v-68.576zm887.925 21.421c0-12.661 12.5-21.956 25.12-21.956h3.15v102.466h-28.27v-80.51zM1624 366.27h-3.15c-13.87 0-25.12-11.242-25.12-25.107v-53.107c-1.7.286-3.4.434-5.07.434h-67.42c-15.32 0-33.35-12.487-33.35-28.927v-44.585c0-14.463 13.94-25.854 27.72-28.392v68.86c.16 5.881 5.01 10.65 10.92 10.65h56.84c5.17 0 9.54-3.646 10.65-8.501v-.02c.18-.777.27-1.583.27-2.412v-40.185c0-14.466 13.92-25.854 27.71-28.391V366.27zm-502.63-158.291c0-12.663 12.49-21.956 25.11-21.956H1191.57v.029h8.84v22.399h-33.67c-9.4 0-17.11 7.703-17.11 17.107v62.932h-28.26v-80.511zm-519.751.029c0-12.661 8.708-21.956 21.324-21.956l18.517.058c1.728 0 3.744.457 7.219 3.861l76.639 74.895v-61.01c0-12.666 8.74-17.804 21.33-17.804l18.526.058c-7.042.804-11.69 2.69-11.59 19.929v66.907c0 6.348-4.649 15.572-11.001 15.572H717.012c-6.146.122-11.126-5.586-15.34-9.744l-71.786-70.738c-.016.7-.022 1.416-.016 2.159v78.323h-28.251v-80.51zm365.188-21.956c-12.417.046-29.524-1.658-38.471 13.091l-41.352 62.776-41.357-62.779c-8.355-14.472-25.56-13.088-38.465-13.088l56.358 86.686c5.692 8.749 12.208 14.78 20.38 15.63 9.976 1.035 19.008-4.04 26.548-15.63 17.356-26.702 37.451-57.604 56.359-86.686zm514.803 85.855v16.583H1444.74c-15.32 0-33.34-12.479-33.34-28.927V150.399c0-13.873 11.26-25.121 25.12-25.121h3.15v61.208c1.71-.282 3.4-.434 5.07-.434h29.05v22.399H1439.67v40.539c0 9.406 7.71 17.106 17.11 17.106h24.83v5.811zm-382.29-5.813h-94.44c-13.505 0-13.504-17.731.01-17.731 11.98 0 23.8.211 35.58.211.85 0 1.71-.023 2.58-.07h22.94c15.33 0 33.33-12.474 33.33-28.925v-4.601c0-16.451-18-28.926-33.33-28.926h-66.415c-15.331 0-33.333 12.475-33.333 28.926v44.585c0 16.448 18.014 28.927 33.352 28.927l99.726-.002v-22.394zm-99.726-40.052l61.096.134c13.47 0 13.53-17.725 0-17.725H1004.87c-5.295 0-9.74 3.811-10.728 8.829h-.076v9.274a31.185 31.185 0 015.528-.512zm339.646-17.591h-91.35c-13.52 0-13.47 17.725 0 17.725 12.07 0 23.59-.213 35.58-.213.9 0 1.81.028 2.71.079h22.81c15.34 0 33.35 12.469 33.35 28.918v4.603c0 16.448-18.01 28.927-33.35 28.927h-25.5v-.002h-74.22v-22.394h94.43c14.09 0 13.71-17.731-.01-17.731-11.98 0-23.8.211-35.58.211-.85 0-1.71-.023-2.57-.07h-22.94c-15.34 0-33.33-12.474-33.33-28.925v-4.601c0-16.451 17.99-28.926 33.33-28.926h96.64v22.399z" fill="#127800"/></svg>
